packages/tokens/icons/accessPrivate/size24Px.svg

<svg viewBox="0 0 24 24" fill="none" xmlns="http://www.w3.org/2000/svg" width="1em" height="1em"><path d="M11.9999 11.5C13.6568 11.5 14.9999 10.1569 14.9999 8.5C14.9999 6.84315 13.6568 5.5 11.9999 5.5C10.3431 5.5 8.99994 6.84315 8.99994 8.5C8.99994 10.1569 10.3431 11.5 11.9999 11.5Z" stroke="currentColor" stroke-linecap="round" stroke-linejoin="round"/><path d="M7.49998 17.5L7.49998 16.5C7.49998 15.3954 8.39542 14.5 9.49998 14.5L14.5 14.5C15.6046 14.5 16.5 15.3954 16.5 16.5V17.5" stroke="currentColor" stroke-linecap="round"/><path d="M5.28731 3.36453C8.06911 4.4971 10.0421 3.62499 11.2165 2.71443C11.6716 2.3615 12.3283 2.3615 12.7835 2.71444C13.9579 3.625 15.9308 4.4971 18.7126 3.36453C19.1733 3.17695 19.7228 3.29835 19.9329 3.74927C21.7349 7.6174 20.034 15.9589 12.5398 21.139C12.2159 21.3629 11.7842 21.3629 11.4603 21.139C3.96606 15.9589 2.26504 7.61742 4.067 3.74928C4.27707 3.29835 4.82658 3.17695 5.28731 3.36453Z" stroke="currentColor" stroke-linecap="round"/></svg>

<svg xmlns="http://www.w3.org/2000/svg" fill="none" viewBox="0 0 24 24" width="1em" height="1em"><path stroke="currentColor" stroke-linecap="round" stroke-linejoin="round" d="M12 11.5a3 3 0 1 0 0-6 3 3 0 0 0 0 6Z"/><path stroke="currentColor" stroke-linecap="round" d="M7.5 17.5v-1a2 2 0 0 1 2-2h5a2 2 0 0 1 2 2v1"/><path stroke="currentColor" stroke-linecap="round" d="M5.287 3.365c2.782 1.132 4.755.26 5.93-.65a1.292 1.292 0 0 1 1.566 0c1.175.91 3.148 1.782 5.93.65.46-.188 1.01-.067 1.22.384 1.802 3.868.101 12.21-7.393 17.39a.951.951 0 0 1-1.08 0c-7.494-5.18-9.195-13.522-7.393-17.39.21-.45.76-.572 1.22-.384Z"/></svg>
